src/assets/svg/googleplay.svg

<svg width="197" height="56" viewBox="0 0 197 56" fill="none" xmlns="http://www.w3.org/2000/svg">
<path d="M0 28C0 12.536 12.6368 0 28.2251 0H168.775C184.363 0 197 12.536 197 28C197 43.464 184.363 56 168.775 56H28.2251C12.6368 56 0 43.464 0 28Z" fill="white" fill-opacity="1"/>
<path d="M76.8991 21.8514C76.1388 21.8514 75.4744 21.68 74.9061 21.3371C74.3377 20.9943 73.8961 20.5143 73.5812 19.8971C73.2663 19.28 73.1089 18.56 73.1089 17.7371C73.1089 16.9219 73.2702 16.2019 73.5928 15.5771C73.9153 14.9524 74.3723 14.4648 74.9637 14.1143C75.5628 13.7562 76.2693 13.5771 77.0835 13.5771C78.0051 13.5771 78.7731 13.7981 79.3876 14.24C80.002 14.6819 80.4013 15.2914 80.5857 16.0686H79.2032C79.0803 15.6419 78.8384 15.3067 78.4774 15.0629C78.1165 14.819 77.6518 14.6971 77.0835 14.6971C76.2386 14.6971 75.5743 14.9676 75.0904 15.5086C74.6066 16.0495 74.3646 16.7962 74.3646 17.7486C74.3646 18.701 74.6027 19.4438 75.0789 19.9771C75.5551 20.5105 76.1887 20.7771 76.9798 20.7771C77.7785 20.7771 78.3776 20.5524 78.777 20.1029C79.184 19.6533 79.4221 19.0552 79.4912 18.3086H77.3023V17.3714H80.7239V21.7143H79.6064L79.5028 20.5371C79.2339 20.9562 78.896 21.28 78.4889 21.5086C78.0819 21.7371 77.5519 21.8514 76.8991 21.8514Z" fill="#015401" fill-opacity="1"/>
<path d="M82.206 21.7143V13.7143H87.3326V14.6971H83.4272V17.1886H86.987V18.1486H83.4272V20.7314H87.3326V21.7143H82.206Z" fill="#015401" fill-opacity="1"/>
<path d="M90.6769 21.7143V14.6971H88.2921V13.7143H94.2713V14.6971H91.8981V21.7143H90.6769Z" fill="#015401" fill-opacity="1"/>
<path d="M98.3167 21.7143V13.7143H99.5378V21.7143H98.3167Z" fill="#015401" fill-opacity="1"/>
<path d="M103.064 21.7143V14.6971H100.679V13.7143H106.658V14.6971H104.285V21.7143H103.064Z" fill="#015401" fill-opacity="1"/>
<path d="M114.425 21.8514C113.626 21.8514 112.927 21.6762 112.328 21.3257C111.729 20.9752 111.26 20.4914 110.922 19.8743C110.584 19.2495 110.415 18.5295 110.415 17.7143C110.415 16.899 110.584 16.1829 110.922 15.5657C111.26 14.941 111.729 14.4533 112.328 14.1029C112.927 13.7524 113.626 13.5771 114.425 13.5771C115.223 13.5771 115.922 13.7524 116.521 14.1029C117.12 14.4533 117.585 14.941 117.915 15.5657C118.253 16.1829 118.422 16.899 118.422 17.7143C118.422 18.5295 118.253 19.2495 117.915 19.8743C117.585 20.4914 117.12 20.9752 116.521 21.3257C115.922 21.6762 115.223 21.8514 114.425 21.8514ZM114.425 20.7657C114.978 20.7657 115.458 20.6438 115.865 20.4C116.279 20.1562 116.602 19.8057 116.832 19.3486C117.063 18.8914 117.178 18.3467 117.178 17.7143C117.178 17.0819 117.063 16.5371 116.832 16.08C116.602 15.6229 116.279 15.2724 115.865 15.0286C115.458 14.7848 114.978 14.6629 114.425 14.6629C113.872 14.6629 113.388 14.7848 112.973 15.0286C112.558 15.2724 112.236 15.6229 112.005 16.08C111.782 16.5371 111.671 17.0819 111.671 17.7143C111.671 18.3467 111.782 18.8914 112.005 19.3486C112.236 19.8057 112.558 20.1562 112.973 20.4C113.388 20.6438 113.872 20.7657 114.425 20.7657Z" fill="#015401" fill-opacity="1"/>
<path d="M119.783 21.7143V13.7143H121.004L125.047 19.7371V13.7143H126.269V21.7143H125.047L121.004 15.6914V21.7143H119.783Z" fill="#015401" fill-opacity="1"/>
<path d="M78.6111 42.4777C77.5466 42.4777 76.6165 42.2377 75.8208 41.7577C75.0251 41.2777 74.4069 40.611 73.966 39.7577C73.5252 38.8937 73.3047 37.891 73.3047 36.7497C73.3047 35.5977 73.5305 34.5844 73.9821 33.7097C74.4445 32.8244 75.095 32.1364 75.9337 31.6457C76.7832 31.1444 77.7885 30.8937 78.9498 30.8937C80.2723 30.8937 81.3691 31.2084 82.24 31.8377C83.111 32.467 83.6755 33.3364 83.9335 34.4457H81.6271C81.4551 33.923 81.1433 33.5177 80.6917 33.2297C80.2401 32.931 79.6594 32.7817 78.9498 32.7817C77.8208 32.7817 76.9498 33.139 76.3369 33.8537C75.724 34.5577 75.4176 35.5284 75.4176 36.7657C75.4176 38.003 75.7187 38.963 76.3208 39.6457C76.9337 40.3177 77.7616 40.6537 78.8046 40.6537C79.8261 40.6537 80.5949 40.3817 81.111 39.8377C81.6379 39.2831 81.9551 38.5577 82.0626 37.6617H79.2078V36.1257H84.1432V42.2857H82.24L82.0787 40.8137C81.7131 41.347 81.2562 41.7577 80.7078 42.0457C80.1594 42.3337 79.4605 42.4777 78.6111 42.4777Z" fill="#015401" fill-opacity="1"/>
<path d="M89.9404 42.4777C89.1663 42.4777 88.4674 42.3017 87.8437 41.9497C87.2308 41.5977 86.7416 41.1124 86.376 40.4937C86.0212 39.8644 85.8438 39.139 85.8438 38.3177C85.8438 37.4964 86.0266 36.7764 86.3921 36.1577C86.7577 35.5284 87.2469 35.0377 87.8598 34.6857C88.4835 34.3337 89.1824 34.1577 89.9566 34.1577C90.72 34.1577 91.4081 34.3337 92.021 34.6857C92.6447 35.0377 93.1339 35.5284 93.4887 36.1577C93.8543 36.7764 94.0371 37.4964 94.0371 38.3177C94.0371 39.139 93.8543 39.8644 93.4887 40.4937C93.1339 41.1124 92.6447 41.5977 92.021 41.9497C91.3974 42.3017 90.7039 42.4777 89.9404 42.4777ZM89.9404 40.7017C90.4781 40.7017 90.9458 40.5044 91.3436 40.1097C91.7415 39.7044 91.9404 39.107 91.9404 38.3177C91.9404 37.5284 91.7415 36.9364 91.3436 36.5417C90.9458 36.1364 90.4834 35.9337 89.9566 35.9337C89.4082 35.9337 88.9351 36.1364 88.5372 36.5417C88.1502 36.9364 87.9566 37.5284 87.9566 38.3177C87.9566 39.107 88.1502 39.7044 88.5372 40.1097C88.9351 40.5044 89.4028 40.7017 89.9404 40.7017Z" fill="#015401" fill-opacity="1"/>
<path d="M99.7216 42.4777C98.9474 42.4777 98.2485 42.3017 97.6249 41.9497C97.012 41.5977 96.5227 41.1124 96.1572 40.4937C95.8023 39.8644 95.6249 39.139 95.6249 38.3177C95.6249 37.4964 95.8077 36.7764 96.1733 36.1577C96.5389 35.5284 97.0281 35.0377 97.641 34.6857C98.2646 34.3337 98.9635 34.1577 99.7377 34.1577C100.501 34.1577 101.189 34.3337 101.802 34.6857C102.426 35.0377 102.915 35.5284 103.27 36.1577C103.635 36.7764 103.818 37.4964 103.818 38.3177C103.818 39.139 103.635 39.8644 103.27 40.4937C102.915 41.1124 102.426 41.5977 101.802 41.9497C101.179 42.3017 100.485 42.4777 99.7216 42.4777ZM99.7216 40.7017C100.259 40.7017 100.727 40.5044 101.125 40.1097C101.523 39.7044 101.722 39.107 101.722 38.3177C101.722 37.5284 101.523 36.9364 101.125 36.5417C100.727 36.1364 100.265 35.9337 99.7377 35.9337C99.1893 35.9337 98.7162 36.1364 98.3184 36.5417C97.9313 36.9364 97.7378 37.5284 97.7378 38.3177C97.7378 39.107 97.9313 39.7044 98.3184 40.1097C98.7162 40.5044 99.184 40.7017 99.7216 40.7017Z" fill="#015401" fill-opacity="1"/>
<path d="M108.547 39.9177C108.16 39.9177 107.8 39.875 107.466 39.7897L106.87 40.3817C107.053 40.4777 107.3 40.5577 107.612 40.6217C107.923 40.6857 108.429 40.7497 109.128 40.8137C110.192 40.9097 110.966 41.1604 111.45 41.5657C111.934 41.971 112.176 42.531 112.176 43.2457C112.176 43.715 112.047 44.1577 111.789 44.5737C111.531 45.0004 111.133 45.3417 110.595 45.5977C110.058 45.8644 109.37 45.9977 108.531 45.9977C107.391 45.9977 106.472 45.7844 105.773 45.3577C105.074 44.9417 104.725 44.3124 104.725 43.4697C104.725 42.755 105.074 42.1364 105.773 41.6137C105.558 41.5177 105.37 41.4164 105.208 41.3097C105.058 41.203 104.924 41.091 104.805 40.9737V40.6057L106.208 39.1337C105.585 38.5897 105.273 37.8911 105.273 37.0377C105.273 36.5044 105.402 36.019 105.66 35.5817C105.929 35.1444 106.305 34.7977 106.789 34.5417C107.273 34.2857 107.859 34.1577 108.547 34.1577C108.999 34.1577 109.418 34.2217 109.805 34.3497H112.837V35.5977L111.466 35.6937C111.681 36.099 111.789 36.5471 111.789 37.0377C111.789 37.571 111.66 38.0564 111.402 38.4937C111.144 38.931 110.767 39.2777 110.273 39.5337C109.789 39.7897 109.214 39.9177 108.547 39.9177ZM108.547 38.3497C108.966 38.3497 109.311 38.2377 109.579 38.0137C109.859 37.7897 109.999 37.4697 109.999 37.0537C109.999 36.6377 109.859 36.3177 109.579 36.0937C109.311 35.8697 108.966 35.7577 108.547 35.7577C108.106 35.7577 107.751 35.8697 107.483 36.0937C107.214 36.3177 107.079 36.6377 107.079 37.0537C107.079 37.4697 107.214 37.7897 107.483 38.0137C107.751 38.2377 108.106 38.3497 108.547 38.3497ZM106.612 43.2617C106.612 43.6564 106.794 43.9497 107.16 44.1417C107.536 44.3444 107.993 44.4457 108.531 44.4457C109.047 44.4457 109.466 44.3391 109.789 44.1257C110.112 43.923 110.273 43.6457 110.273 43.2937C110.273 43.0057 110.165 42.7657 109.95 42.5737C109.746 42.3817 109.332 42.2644 108.708 42.2217C108.268 42.1897 107.859 42.1417 107.483 42.0777C107.171 42.2484 106.945 42.435 106.805 42.6377C106.676 42.8404 106.612 43.0484 106.612 43.2617Z" fill="#015401" fill-opacity="1"/>
<path d="M114.343 42.2857V30.7657H116.407V42.2857H114.343Z" fill="#015401" fill-opacity="1"/>
<path d="M122.404 42.4777C121.597 42.4777 120.882 42.3071 120.259 41.9657C119.635 41.6244 119.146 41.1444 118.791 40.5257C118.436 39.907 118.259 39.1924 118.259 38.3817C118.259 37.5604 118.431 36.8297 118.775 36.1897C119.13 35.5497 119.613 35.0537 120.226 34.7017C120.85 34.3391 121.581 34.1577 122.42 34.1577C123.205 34.1577 123.898 34.3284 124.5 34.6697C125.103 35.0111 125.57 35.4804 125.904 36.0777C126.248 36.6644 126.42 37.3204 126.42 38.0457C126.42 38.1631 126.414 38.2857 126.404 38.4137C126.404 38.5417 126.398 38.675 126.387 38.8137H120.307C120.35 39.4324 120.565 39.9177 120.952 40.2697C121.35 40.6217 121.828 40.7977 122.388 40.7977C122.807 40.7977 123.156 40.7071 123.436 40.5257C123.726 40.3337 123.941 40.0884 124.081 39.7897H126.178C126.027 40.291 125.775 40.7497 125.42 41.1657C125.076 41.571 124.646 41.891 124.129 42.1257C123.624 42.3604 123.049 42.4777 122.404 42.4777ZM122.42 35.8217C121.914 35.8217 121.468 35.9657 121.081 36.2537C120.694 36.531 120.447 36.9577 120.339 37.5337H124.323C124.291 37.011 124.097 36.5951 123.742 36.2857C123.387 35.9764 122.947 35.8217 122.42 35.8217Z" fill="#015401" fill-opacity="1"/>
<path d="M132.048 42.2857V31.0857H136.225C137.128 31.0857 137.875 31.235 138.467 31.5337C139.058 31.8324 139.499 32.243 139.789 32.7657C140.08 33.2884 140.225 33.875 140.225 34.5257C140.225 35.1444 140.085 35.715 139.805 36.2377C139.526 36.7497 139.09 37.1657 138.499 37.4857C137.908 37.795 137.15 37.9497 136.225 37.9497H134.112V42.2857H132.048ZM134.112 36.2857H136.096C136.816 36.2857 137.332 36.1311 137.644 35.8217C137.967 35.5017 138.128 35.0697 138.128 34.5257C138.128 33.971 137.967 33.5391 137.644 33.2297C137.332 32.9097 136.816 32.7497 136.096 32.7497H134.112V36.2857Z" fill="#015401" fill-opacity="1"/>
<path d="M141.796 42.2857V30.7657H143.861V42.2857H141.796Z" fill="#015401" fill-opacity="1"/>
<path d="M148.728 42.4777C148.04 42.4777 147.475 42.3711 147.034 42.1577C146.594 41.9337 146.266 41.6404 146.051 41.2777C145.836 40.9151 145.728 40.515 145.728 40.0777C145.728 39.3417 146.018 38.7444 146.599 38.2857C147.18 37.827 148.051 37.5977 149.212 37.5977H151.244V37.4057C151.244 36.8617 151.088 36.4617 150.776 36.2057C150.465 35.9497 150.077 35.8217 149.615 35.8217C149.196 35.8217 148.83 35.923 148.518 36.1257C148.206 36.3177 148.013 36.6057 147.938 36.9897H145.922C145.975 36.4137 146.169 35.9124 146.502 35.4857C146.846 35.059 147.287 34.7337 147.825 34.5097C148.362 34.275 148.965 34.1577 149.631 34.1577C150.771 34.1577 151.669 34.4404 152.325 35.0057C152.981 35.571 153.309 36.371 153.309 37.4057V42.2857H151.551L151.357 41.0057C151.12 41.4324 150.787 41.7844 150.357 42.0617C149.938 42.3391 149.395 42.4777 148.728 42.4777ZM149.196 40.8777C149.787 40.8777 150.244 40.6857 150.567 40.3017C150.9 39.9177 151.11 39.4431 151.196 38.8777H149.438C148.889 38.8777 148.497 38.979 148.26 39.1817C148.024 39.3737 147.905 39.6137 147.905 39.9017C147.905 40.2111 148.024 40.451 148.26 40.6217C148.497 40.7924 148.809 40.8777 149.196 40.8777Z" fill="#015401" fill-opacity="1"/>
<path d="M156.011 45.8057L157.866 41.7577H157.382L154.269 34.3497H156.511L158.753 39.9337L161.091 34.3497H163.285L158.204 45.8057H156.011Z" fill="#015401" fill-opacity="1"/>
<path d="M49.4992 26.4019L33.1113 10.101L53.9615 21.9751L49.4992 26.4019ZM28.8355 9.14286C27.8696 9.64375 27.2245 10.5571 27.2245 11.7428V44.249C27.2245 45.4346 27.8708 46.348 28.8355 46.8489L47.8894 27.9917L28.8355 9.14286ZM60.4067 25.7607L56.0335 23.2492L51.1554 28L56.0335 32.7508L60.4958 30.2393C61.8324 29.1868 61.8324 26.8144 60.4067 25.7607ZM33.1125 45.9001L53.9627 34.026L49.5004 29.5993L33.1125 45.9001Z" fill="#015401" fill-opacity="1"/>
</svg>

<svg xmlns="http://www.w3.org/2000/svg" width="197" height="56" fill="none"><path fill="#fff" d="M0 28C0 12.536 12.637 0 28.225 0h140.55C184.363 0 197 12.536 197 28s-12.637 28-28.225 28H28.225C12.637 56 0 43.464 0 28"/><path fill="#015401" d="M76.9 21.851q-1.142 0-1.994-.514a3.5 3.5 0 0 1-1.325-1.44q-.472-.926-.472-2.16 0-1.223.484-2.16a3.56 3.56 0 0 1 1.37-1.463q.9-.537 2.12-.537 1.383 0 2.305.663.92.662 1.198 1.829h-1.383a1.77 1.77 0 0 0-.726-1.006q-.54-.366-1.394-.366-1.267 0-1.993.812-.725.81-.725 2.24 0 1.428.714 2.228.715.8 1.9.8 1.2 0 1.798-.674.61-.675.714-1.794h-2.189v-.938h3.422v4.343h-1.118l-.103-1.177q-.404.63-1.014.972t-1.59.342m5.307-.137v-8h5.127v.983h-3.906v2.492h3.56v.96h-3.56v2.582h3.906v.983zm8.471 0v-7.017h-2.385v-.983h5.98v.983h-2.374v7.017zm7.64 0v-8h1.22v8zm4.747 0v-7.017h-2.385v-.983h5.979v.983h-2.373v7.017zm11.361.137q-1.199 0-2.097-.525a3.7 3.7 0 0 1-1.406-1.452q-.507-.936-.507-2.16 0-1.222.507-2.148a3.7 3.7 0 0 1 1.406-1.463q.899-.525 2.097-.526 1.197 0 2.096.526.899.525 1.394 1.463.507.925.507 2.148t-.507 2.16q-.495.925-1.394 1.452-.899.525-2.096.525m0-1.085q.83 0 1.44-.366.621-.366.967-1.051.346-.686.346-1.635 0-.948-.346-1.634a2.5 2.5 0 0 0-.967-1.051q-.61-.366-1.44-.366t-1.452.366a2.5 2.5 0 0 0-.968 1.051q-.334.686-.334 1.634 0 .949.334 1.635.346.685.968 1.051t1.452.366m5.358.948v-8h1.221l4.043 6.023v-6.023h1.222v8h-1.222l-4.043-6.023v6.023zM78.611 42.478q-1.597 0-2.79-.72a4.9 4.9 0 0 1-1.855-2q-.66-1.296-.661-3.008 0-1.728.677-3.04a5.04 5.04 0 0 1 1.952-2.064q1.275-.752 3.016-.752 1.984 0 3.29.944 1.307.943 1.694 2.608h-2.307a2.22 2.22 0 0 0-.935-1.216q-.678-.448-1.742-.448-1.694 0-2.613 1.072-.92 1.055-.92 2.912 0 1.855.904 2.88.919 1.008 2.484 1.008 1.532 0 2.306-.816.79-.832.952-2.176h-2.855v-1.536h4.935v6.16H82.24l-.161-1.472a3.8 3.8 0 0 1-1.371 1.232q-.824.432-2.097.432m11.329 0q-1.161 0-2.096-.528a4 4 0 0 1-1.468-1.456q-.532-.945-.532-2.176 0-1.233.548-2.16.549-.944 1.468-1.472.935-.528 2.097-.528 1.144 0 2.064.528a3.8 3.8 0 0 1 1.468 1.472q.548.927.548 2.16 0 1.231-.548 2.176a3.83 3.83 0 0 1-1.468 1.456 4.16 4.16 0 0 1-2.08.528m0-1.776q.807 0 1.404-.592.597-.609.596-1.792 0-1.185-.596-1.776-.597-.608-1.387-.608-.823 0-1.42.608-.58.591-.58 1.776 0 1.183.58 1.792.597.592 1.403.592m9.781 1.776q-1.162 0-2.097-.528a4 4 0 0 1-1.468-1.456q-.532-.945-.532-2.176 0-1.233.548-2.16.549-.944 1.468-1.472.935-.528 2.097-.528 1.145 0 2.064.528a3.8 3.8 0 0 1 1.468 1.472q.548.927.548 2.16 0 1.231-.548 2.176a3.83 3.83 0 0 1-1.468 1.456 4.16 4.16 0 0 1-2.08.528m0-1.776q.806 0 1.403-.592.597-.609.597-1.792 0-1.185-.597-1.776-.597-.608-1.387-.608-.823 0-1.42.608-.58.591-.58 1.776 0 1.183.58 1.792.597.592 1.404.592m8.825-.784q-.58 0-1.081-.128l-.596.592q.274.144.742.24t1.516.192q1.596.144 2.322.752t.726 1.68q0 .704-.387 1.328-.387.64-1.194 1.024-.805.4-2.064.4-1.71 0-2.758-.64-1.048-.624-1.048-1.888 0-1.073 1.048-1.856a4 4 0 0 1-.565-.304 3 3 0 0 1-.403-.336v-.368l1.403-1.472q-.935-.816-.935-2.096 0-.8.387-1.456a2.87 2.87 0 0 1 1.129-1.04q.726-.384 1.758-.384.678 0 1.258.192h3.032v1.248l-1.371.096q.323.607.323 1.344 0 .8-.387 1.456a2.73 2.73 0 0 1-1.129 1.04q-.726.384-1.726.384m0-1.568q.63 0 1.032-.336.42-.336.42-.96t-.42-.96q-.403-.336-1.032-.336-.662 0-1.064.336-.404.336-.404.96t.404.96q.402.336 1.064.336m-1.935 4.912q0 .592.548.88.564.303 1.371.304.774 0 1.258-.32.484-.304.484-.832a.93.93 0 0 0-.323-.72q-.306-.288-1.242-.352a13 13 0 0 1-1.225-.144q-.468.255-.678.56-.193.303-.193.624m7.731-.976v-11.52h2.064v11.52zm8.061.192q-1.21 0-2.145-.512a3.7 3.7 0 0 1-1.468-1.44q-.532-.929-.532-2.144 0-1.232.516-2.192a3.8 3.8 0 0 1 1.451-1.488q.936-.544 2.194-.544 1.177 0 2.08.512a3.6 3.6 0 0 1 1.404 1.408q.516.879.516 1.968 0 .176-.016.368 0 .192-.017.4h-6.08q.064.927.645 1.456.596.528 1.436.528.628 0 1.048-.272.435-.288.645-.736h2.097q-.226.752-.758 1.376a3.6 3.6 0 0 1-1.291.96q-.757.352-1.725.352m.016-6.656q-.759 0-1.339.432-.58.416-.742 1.28h3.984q-.048-.785-.581-1.248-.532-.464-1.322-.464m9.628 6.464v-11.2h4.177q1.354 0 2.242.448.887.447 1.322 1.232.436.783.436 1.76 0 .927-.42 1.712-.419.768-1.306 1.248-.887.464-2.274.464h-2.113v4.336zm2.064-6h1.984q1.08 0 1.548-.464.484-.48.484-1.296 0-.833-.484-1.296-.468-.48-1.548-.48h-1.984zm7.684 6v-11.52h2.065v11.52zm6.932.192q-1.032 0-1.694-.32-.66-.336-.983-.88a2.3 2.3 0 0 1-.323-1.2q0-1.104.871-1.792t2.613-.688h2.032v-.192q0-.816-.468-1.2-.467-.384-1.161-.384a1.97 1.97 0 0 0-1.097.304q-.468.288-.58.864h-2.016a2.8 2.8 0 0 1 .58-1.504 3.3 3.3 0 0 1 1.323-.976q.806-.352 1.806-.352 1.71 0 2.694.848t.984 2.4v4.88h-1.758l-.194-1.28q-.355.639-1 1.056-.629.416-1.629.416m.468-1.6q.886 0 1.371-.576.5-.576.629-1.424h-1.758q-.823 0-1.178.304a.9.9 0 0 0-.355.72q0 .464.355.72.356.255.936.256m6.815 4.928 1.855-4.048h-.484l-3.113-7.408h2.242l2.242 5.584 2.338-5.584h2.194l-5.081 11.456zM49.5 26.402 33.11 10.1l20.85 11.874zM28.835 9.142c-.966.502-1.611 1.415-1.611 2.6V44.25c0 1.186.646 2.099 1.61 2.6L47.89 27.992zm31.57 16.619-4.373-2.512L51.156 28l4.878 4.75 4.463-2.51c1.336-1.053 1.336-3.426-.09-4.48M33.114 45.9l20.85-11.875-4.463-4.427z"/></svg>
